assets/images/icons/src/file.svg

<?xml version="1.0" encoding="utf-8"?>
<!-- Generated by IcoMoon.io -->
<!DOCTYPE svg PUBLIC "-//W3C//DTD SVG 1.1//EN" "http://www.w3.org/Graphics/SVG/1.1/DTD/svg11.dtd">
<svg version="1.1" xmlns="http://www.w3.org/2000/svg" xmlns:xlink="http://www.w3.org/1999/xlink" width="12" height="14" viewBox="0 0 12 14">
<path fill="#444444" d="M8 4v-3.687q0.172 0.109 0.281 0.219l3.188 3.188q0.109 0.109 0.219 0.281h-3.687zM7 4.25q0 0.312 0.219 0.531t0.531 0.219h4.25v8.25q0 0.312-0.219 0.531t-0.531 0.219h-10.5q-0.312 0-0.531-0.219t-0.219-0.531v-12.5q0-0.312 0.219-0.531t0.531-0.219h6.25v4.25z"></path>
</svg>

<svg xmlns="http://www.w3.org/2000/svg" width="12" height="14" viewBox="0 0 12 14"><path fill="#444" d="M8 4V.313q.172.109.281.219l3.188 3.188q.109.109.219.281H8.001zm-1 .25q0 .312.219.531T7.75 5H12v8.25q0 .312-.219.531T11.25 14H.75q-.312 0-.531-.219T0 13.25V.75Q0 .438.219.219T.75 0H7v4.25z"/></svg>
